src/assets/svg/icons/fa/nuevos/classic/duotone/face-smile-tear classic duotone.svg

<svg xmlns="http://www.w3.org/2000/svg" viewBox="0 0 512 512"><!--! Font Awesome Pro 6.4.0 by @fontawesome - https://fontawesome.com License - https://fontawesome.com/license (Commercial License) Copyright 2023 Fonticons, Inc. --><defs><style>.fa-secondary{opacity:.4}</style></defs><path class="fa-primary" d="M144.4 208a32 32 0 1 1 64 0 32 32 0 1 1 -64 0zM400 369c0 26-21.5 47-48 47s-48-21-48-47c0-20 28.4-60.4 41.6-77.7c3.2-4.4 9.6-4.4 12.8 0C371.4 308.6 400 349 400 369zM336.4 176a32 32 0 1 1 0 64 32 32 0 1 1 0-64z"/><path class="fa-secondary" d="M0 256a256 256 0 1 1 512 0A256 256 0 1 1 0 256zm141.5 67.9c-6.7 5.8-7.4 15.9-1.6 22.6c22.2 25.7 61 53.5 116.1 53.5c8.8 0 16-7.2 16-16s-7.2-16-16-16c-43.4 0-74-21.8-91.9-42.5c-5.8-6.7-15.9-7.4-22.6-1.6zM352 416c26.5 0 48-21 48-47c0-20-28.6-60.4-41.6-77.7c-3.2-4.4-9.6-4.4-12.8 0C332.4 308.6 304 349 304 369c0 26 21.5 47 48 47zM208.4 208a32 32 0 1 0 -64 0 32 32 0 1 0 64 0zm128 32a32 32 0 1 0 0-64 32 32 0 1 0 0 64z"/></svg>

<svg xmlns="http://www.w3.org/2000/svg" viewBox="0 0 512 512"><defs><style>.fa-secondary{opacity:.4}</style></defs><path class="fa-primary" d="M208.4 208C208.4 225.7 194 240 176.4 240C158.7 240 144.4 225.7 144.4 208C144.4 190.3 158.7 176 176.4 176C194 176 208.4 190.3 208.4 208zM400 369C400 395 378.5 416 352 416C325.5 416 304 395 304 369C304 349 332.4 308.6 345.6 291.3C348.8 286.9 355.2 286.9 358.4 291.3C371.4 308.6 400 349 400 369H400zM304.4 208C304.4 190.3 318.7 176 336.4 176C354 176 368.4 190.3 368.4 208C368.4 225.7 354 240 336.4 240C318.7 240 304.4 225.7 304.4 208z"/><path class="fa-secondary" d="M512 256C512 397.4 397.4 512 256 512C114.6 512 0 397.4 0 256C0 114.6 114.6 0 256 0C397.4 0 512 114.6 512 256zM139.9 346.5C162.2 372.1 200.9 400 256 400C264.8 400 272 392.8 272 384C272 375.2 264.8 368 256 368C212.6 368 182 346.2 164.1 325.5C158.3 318.8 148.2 318.1 141.5 323.9C134.8 329.7 134.1 339.8 139.9 346.5L139.9 346.5zM352 416C378.5 416 400 395 400 369C400 349 371.4 308.6 358.4 291.3C355.2 286.9 348.8 286.9 345.6 291.3C332.4 308.6 304 349 304 369C304 395 325.5 416 352 416H352zM176.4 176C158.7 176 144.4 190.3 144.4 208C144.4 225.7 158.7 240 176.4 240C194 240 208.4 225.7 208.4 208C208.4 190.3 194 176 176.4 176zM336.4 240C354 240 368.4 225.7 368.4 208C368.4 190.3 354 176 336.4 176C318.7 176 304.4 190.3 304.4 208C304.4 225.7 318.7 240 336.4 240z"/></svg>
